X:20
T:COME UNDER MY DIMITY -- JIG.
T:Moll Roe
R:jig
N:This is the slipjig Moll Roe in disguise.
B:Coles pg. 65.4
Z:John B. Walsh, <walsh:mat::h.ubc.ca> 5/19/02
M:6/8
L:1/8
K:D
uA|Add efd|cde fef|gef g2e|Add efd|cde aba|gec d2:|
a|afa ged|cde afa|gef g2e|afa ged|cde aba|gec d2:|
